X: 1
T: Novoselsko Kopanica
R: kopanica
O: Bulgaria
Z: John Chambers <jc@trillian.mit.edu> http://trillian.mit.edu/~jc/music/
M: 11/16
L: 1/16
K: DDor
"A"
|: "Dm"^gaa2 aga ~b2ba | aba^g fed ^cddA | ^cdd2 dcd ~e2ed | "A"eddA "E"~B3 B4 :|
"B"
|: "Dm"^cdd2 dcd ~e2ed | aba^g fed ^cddA | ^cdd2 dcd ~e2ed | "A"eddA "E"~B3 B4 :|
"C"
K: A
|: "A"dE~c2  AGA "E"Bcde | "A"dE~c2  AGA "E"~B2BE | "A"dE~c2  AGA "E"Bcde | "A"dE~c2  AGA "E"~B2B2 :|
"D"
|: "D"de~f2 Ade ~f2fA |de~f "A"edc "Bm"~B2BF | "D"de~f2 Ade ~f2fA |de~f "A"edc "Bm"~B2BF |
|  "A"cd~e2 Acd ~e2eA | cd~e2 "Dm"=fgf "A"~e2eA | cd~e2 Acd ~e2eA | cd~e2 edc "Bm"~B2BF :|
"E"
[| "A"dE~c2  AGA "E"Bcde | dE~c2  AGA "E"~B2BE | "A"dE~c2  AGA "E"Bcde | dE~c2  AGA "E"~B2B2 |: "A"{G}A4- A3- A4 :|
"F"
|: "A"edcB ~c2A "E"~B2BA | ~B2BA "A"cde c2cA | edcB ~c2A "E"~B2BA | "A"~c2BA AEA A2z2 :|
"G"
|: "A"~c2BA AEA ~c2BA | ~c2BA cde ~c2BA | ~c2BA AEA ~c2BA | ~c2BA AEA A2z2 :|
